X:26
T:Frieze Britches, The
R:jig
E:10
I:speed 350
M:6/8
K:DMix
|FED EFG|AdB cAG|~A3 BAG|(4FGAF GED|\
FED EFG|AdB cAG|~F3 GEA|~D3 D3:|*
|d2e fed|efd cAG|~A3 BAG|(4FGAF GED|\
d2e fed|efd cAG|~F3 GEA|~D3 D3:|*
|~D3 c3|AdB cAG|AB^c dfd|ded cAF|\
~D3 c3|(4BcdB cAG|~F3 GEA|~D3 D3:|*
|d2e fdd|Add fdd|^c2d eAA|fed eAA|\
d2e fdd|add fed|faf gfe|dfe d3:|*
e|fed ed^c|ded ^cAG|~A3 BAG|(4FGAF GED|\
fed ed^c|ded ^cAG|~F3 GEA|~D3 D2e|*
|fed ed^c|ded ^cAG|~A3 BAG|(4FGAF GED|\
fef gfg|afd ^cAG|EFF GEA|~D3 D3||**
\vfill
\eject
%%%%%%%%%%%%%%%%%%%%%%%%%%%%%%%%%%%%%%%%%%%%%%%%%%%%%%%%%%%%%%%%%%%%%%
%%%%%%%%%%%%%%%%%%%%%%%%%  SLIPJIGS  %%%%%%%%%%%%%%%%%%%%%%%%%%%%%%%%%
%%%%%%%%%%%%%%%%%%%%%%%%%%%%%%%%%%%%%%%%%%%%%%%%%%%%%%%%%%%%%%%%%%%%%%
<end>
<start>
